src/assets/anj-spring.svg

<svg width="78" height="62" viewBox="0 0 78 62" fill="none" xmlns="http://www.w3.org/2000/svg">
<g clip-path="url(#clip0)">
<path fill-rule="evenodd" clip-rule="evenodd" d="M43.0957 33.5372C43.0975 33.5361 43.0995 33.535 43.1014 33.5339C43.1017 33.5337 43.1019 33.5336 43.1022 33.5335C43.1029 33.5332 43.1035 33.5328 43.104 33.5325C43.1007 33.5343 43.098 33.5358 43.0957 33.5372Z" fill="#2B2C2A"/>
<path fill-rule="evenodd" clip-rule="evenodd" d="M43.0957 33.5372C43.0975 33.5361 43.0995 33.535 43.1014 33.5339C43.1017 33.5337 43.1019 33.5336 43.1022 33.5335C43.1029 33.5332 43.1035 33.5328 43.104 33.5325C43.1007 33.5343 43.098 33.5358 43.0957 33.5372Z" stroke="#F8F2E6" stroke-width="0.8" stroke-linecap="round" stroke-linejoin="round"/>
<path fill-rule="evenodd" clip-rule="evenodd" d="M43.1051 33.5314C43.1053 33.5312 43.1056 33.5311 43.1059 33.5309C43.1113 33.5278 43.1142 33.5262 43.1152 33.5256C43.1155 33.5255 43.1155 33.5254 43.1156 33.5254C43.1117 33.5276 43.1081 33.5297 43.1051 33.5314Z" fill="#2B2C2A"/>
<path fill-rule="evenodd" clip-rule="evenodd" d="M43.1051 33.5314C43.1053 33.5312 43.1056 33.5311 43.1059 33.5309C43.1113 33.5278 43.1142 33.5262 43.1152 33.5256C43.1155 33.5255 43.1155 33.5254 43.1156 33.5254C43.1117 33.5276 43.1081 33.5297 43.1051 33.5314Z" stroke="#F8F2E6" stroke-width="0.8" stroke-linecap="round" stroke-linejoin="round"/>
<g clip-path="url(#clip1)">
<path fill-rule="evenodd" clip-rule="evenodd" d="M43.6263 35.3519C43.6279 35.3509 43.6297 35.35 43.6314 35.349C43.6317 35.3488 43.6318 35.3487 43.6321 35.3485C43.6327 35.3483 43.6333 35.3479 43.6337 35.3477C43.6308 35.3493 43.6283 35.3507 43.6263 35.3519Z" fill="#2B2C2A"/>
<path fill-rule="evenodd" clip-rule="evenodd" d="M43.6263 35.3519C43.6279 35.3509 43.6297 35.35 43.6314 35.349C43.6317 35.3488 43.6318 35.3487 43.6321 35.3485C43.6327 35.3483 43.6333 35.3479 43.6337 35.3477C43.6308 35.3493 43.6283 35.3507 43.6263 35.3519Z" stroke="#F8F2E6" stroke-width="0.8" stroke-linecap="round" stroke-linejoin="round"/>
<path fill-rule="evenodd" clip-rule="evenodd" d="M43.6349 35.3466C43.6352 35.3464 43.6354 35.3463 43.6356 35.3462C43.6404 35.3434 43.6429 35.342 43.6438 35.3415C43.644 35.3414 43.6441 35.3413 43.6442 35.3413C43.6408 35.3433 43.6376 35.3451 43.6349 35.3466Z" fill="#2B2C2A"/>
<path fill-rule="evenodd" clip-rule="evenodd" d="M43.6349 35.3466C43.6352 35.3464 43.6354 35.3463 43.6356 35.3462C43.6404 35.3434 43.6429 35.342 43.6438 35.3415C43.644 35.3414 43.6441 35.3413 43.6442 35.3413C43.6408 35.3433 43.6376 35.3451 43.6349 35.3466Z" stroke="#F8F2E6" stroke-width="0.8" stroke-linecap="round" stroke-linejoin="round"/>
<path fill-rule="evenodd" clip-rule="evenodd" d="M48.0678 32.8423C44.5491 34.8305 43.7838 35.2629 43.6454 35.3412C43.6454 35.3411 43.6453 35.3412 43.6447 35.3414C43.6434 35.3422 43.6399 35.3442 43.6358 35.3466C43.6347 35.3472 43.6334 35.3479 43.6321 35.3486C43.6318 35.3487 43.6316 35.3489 43.6314 35.349C43.6286 35.3507 43.6251 35.3526 43.621 35.3549C43.6207 35.355 43.6204 35.3552 43.6202 35.3554C43.6199 35.3555 43.6196 35.3557 43.6194 35.3558C43.6174 35.3569 43.6178 35.3567 43.6194 35.3558C43.6195 35.3557 43.6199 35.3555 43.6202 35.3554C43.6203 35.3553 43.6204 35.3552 43.6205 35.3551C43.4892 35.4294 42.74 35.8526 39.2267 37.8378C33.7847 34.7611 35.6018 35.7881 30.3867 32.842C32.0769 31.8871 37.5402 28.8001 39.2277 27.8466C44.6894 30.9345 42.6068 29.7575 48.0678 32.8423ZM25.9661 25.3493C25.9654 37.314 25.968 29.3312 25.9666 40.3351C36.1927 46.1117 29.0425 42.0749 39.2272 47.828C40.5717 47.0686 50.9471 41.2062 52.4884 40.3351C52.4891 28.3705 52.4864 36.3533 52.4878 25.3493C42.1783 19.5259 49.3462 23.5724 39.2272 17.8564C30.1592 22.98 33.5234 21.0792 25.9661 25.3493Z" stroke="#F8F2E6" stroke-width="0.8" stroke-linecap="round" stroke-linejoin="round"/>
<path fill-rule="evenodd" clip-rule="evenodd" d="M39.2274 47.828C40.5715 47.0686 50.9471 41.206 52.4881 40.3353L52.4887 35.3397C50.8536 36.2635 40.8623 41.909 39.228 42.8324C37.949 42.11 31.6702 38.5631 30.386 37.8377L30.3866 32.8421C32.0797 31.8856 37.5374 28.8017 39.2277 27.8467C44.6611 30.9185 42.6252 29.7679 48.0678 32.8423L48.0684 27.8468C46.7893 27.1243 40.5106 23.5775 39.2264 22.8521C37.8093 23.6528 27.3425 29.5669 25.9657 30.3448C25.9674 36.4843 25.9672 34.2196 25.9665 40.335C36.1927 46.1116 29.0425 42.0748 39.2274 47.828Z" stroke="#FF8A8A" stroke-linejoin="round"/>
<path fill-rule="evenodd" clip-rule="evenodd" d="M39.2264 22.852C40.5054 23.5745 46.7842 27.1213 48.0684 27.8467L48.0678 32.8423C38.9888 37.9722 48.3083 32.7064 39.2267 37.8378C33.7946 34.7667 35.7985 35.8992 30.3866 32.842L30.386 37.8377C31.6651 38.5602 37.9438 42.1069 39.228 42.8323C40.8626 41.9088 50.8543 36.2632 52.4887 35.3396C52.487 29.2002 52.4872 31.4648 52.4879 25.3495C42.1782 19.5257 49.3461 23.5725 39.227 17.8564C30.159 22.9801 33.5233 21.0792 25.9663 25.3492L25.9657 30.3447C27.3302 29.5738 37.9154 23.5928 39.2264 22.852Z" fill="url(#paint0_linear)" fill-opacity="0.2"/>
<path fill-rule="evenodd" clip-rule="evenodd" d="M39.2274 47.828C40.5715 47.0686 50.9471 41.206 52.4881 40.3353L52.4887 35.3397C50.8536 36.2635 40.8623 41.909 39.228 42.8324C37.949 42.11 31.6702 38.5631 30.386 37.8377L30.3866 32.8421C32.0797 31.8856 37.5374 28.8017 39.2277 27.8467C44.6611 30.9185 42.6252 29.7679 48.0678 32.8423L48.0684 27.8468C46.7893 27.1243 40.5106 23.5775 39.2264 22.8521C37.8093 23.6528 27.3425 29.5669 25.9657 30.3448C25.9674 36.4843 25.9672 34.2196 25.9665 40.335C36.1927 46.1116 29.0425 42.0748 39.2274 47.828Z" fill="url(#paint1_linear)" fill-opacity="0.05"/>
<path fill-rule="evenodd" clip-rule="evenodd" d="M39.2264 22.852C40.5054 23.5745 46.7842 27.1213 48.0684 27.8467L48.0678 32.8423C38.9888 37.9722 48.3083 32.7064 39.2267 37.8378C33.7946 34.7667 35.7985 35.8992 30.3866 32.842L30.386 37.8377C31.6651 38.5602 37.9438 42.1069 39.228 42.8323C40.8626 41.9088 50.8543 36.2632 52.4887 35.3396C52.487 29.2002 52.4872 31.4648 52.4879 25.3495C42.1782 19.5257 49.3461 23.5725 39.227 17.8564C30.159 22.9801 33.5233 21.0792 25.9663 25.3492L25.9657 30.3447C27.3302 29.5738 37.9154 23.5928 39.2264 22.852Z" stroke="#FF8A8A" stroke-linejoin="round"/>
</g>
</g>
<path opacity="0.6" d="M71.2499 45.069C71.2499 46.1593 70.5547 47.3306 68.9841 48.5121C67.4262 49.6841 65.1243 50.7715 62.2125 51.6979C56.3977 53.5481 48.318 54.7044 39.36 54.7044C30.4021 54.7044 22.3224 53.5481 16.5076 51.6979C13.5958 50.7715 11.2939 49.6841 9.73603 48.5121C8.16535 47.3306 7.47015 46.1593 7.47015 45.069C7.47015 43.9787 8.16535 42.8075 9.73603 41.6259C11.2939 40.4539 13.5958 39.3666 16.5076 38.4401C22.3224 36.5899 30.4021 35.4336 39.36 35.4336C48.318 35.4336 56.3977 36.5899 62.2125 38.4401C65.1243 39.3666 67.4262 40.4539 68.9841 41.6259C70.5547 42.8075 71.2499 43.9787 71.2499 45.069Z" stroke="url(#paint2_linear)" stroke-width="1.5"/>
<g opacity="0.6" filter="url(#filter0_f)">
<path d="M71.2499 45.069C71.2499 46.1593 70.5547 47.3306 68.9841 48.5121C67.4262 49.6841 65.1243 50.7715 62.2125 51.6979C56.3977 53.5481 48.318 54.7044 39.36 54.7044C30.4021 54.7044 22.3224 53.5481 16.5076 51.6979C13.5958 50.7715 11.2939 49.6841 9.73603 48.5121C8.16535 47.3306 7.47015 46.1593 7.47015 45.069C7.47015 43.9787 8.16535 42.8075 9.73603 41.6259C11.2939 40.4539 13.5958 39.3666 16.5076 38.4401C22.3224 36.5899 30.4021 35.4336 39.36 35.4336C48.318 35.4336 56.3977 36.5899 62.2125 38.4401C65.1243 39.3666 67.4262 40.4539 68.9841 41.6259C70.5547 42.8075 71.2499 43.9787 71.2499 45.069Z" stroke="url(#paint3_linear)" stroke-width="1.5"/>
</g>
<path opacity="0.7" d="M71.2499 30.7272C71.2499 31.8175 70.5547 32.9888 68.9841 34.1703C67.4262 35.3423 65.1243 36.4297 62.2125 37.3561C56.3977 39.2063 48.318 40.3626 39.36 40.3626C30.4021 40.3626 22.3224 39.2063 16.5076 37.3561C13.5958 36.4297 11.2939 35.3423 9.73603 34.1703C8.16535 32.9888 7.47015 31.8175 7.47015 30.7272C7.47015 29.6369 8.16535 28.4657 9.73603 27.2841C11.2939 26.1121 13.5958 25.0248 16.5076 24.0983C22.3224 22.2481 30.4021 21.0918 39.36 21.0918C48.318 21.0918 56.3977 22.2481 62.2125 24.0983C65.1243 25.0248 67.4262 26.1121 68.9841 27.2841C70.5547 28.4657 71.2499 29.6369 71.2499 30.7272Z" stroke="url(#paint4_linear)" stroke-width="1.5"/>
<g opacity="0.7" filter="url(#filter1_f)">
<path d="M71.2499 30.7272C71.2499 31.8175 70.5547 32.9888 68.9841 34.1703C67.4262 35.3423 65.1243 36.4297 62.2125 37.3561C56.3977 39.2063 48.318 40.3626 39.36 40.3626C30.4021 40.3626 22.3224 39.2063 16.5076 37.3561C13.5958 36.4297 11.2939 35.3423 9.73603 34.1703C8.16535 32.9888 7.47015 31.8175 7.47015 30.7272C7.47015 29.6369 8.16535 28.4657 9.73603 27.2841C11.2939 26.1121 13.5958 25.0248 16.5076 24.0983C22.3224 22.2481 30.4021 21.0918 39.36 21.0918C48.318 21.0918 56.3977 22.2481 62.2125 24.0983C65.1243 25.0248 67.4262 26.1121 68.9841 27.2841C70.5547 28.4657 71.2499 29.6369 71.2499 30.7272Z" stroke="url(#paint5_linear)" stroke-width="1.5"/>
</g>
<path opacity="0.8" d="M71.2501 16.3854C71.2501 17.4757 70.5549 18.647 68.9842 19.8285C67.4263 21.0005 65.1245 22.0879 62.2127 23.0143C56.3978 24.8645 48.3181 26.0208 39.3602 26.0208C30.4023 26.0208 22.3226 24.8645 16.5077 23.0143C13.596 22.0879 11.2941 21.0005 9.73621 19.8285C8.16554 18.647 7.47034 17.4757 7.47034 16.3854C7.47034 15.2951 8.16554 14.1239 9.73621 12.9423C11.2941 11.7703 13.596 10.683 16.5077 9.75651C22.3226 7.90633 30.4023 6.75 39.3602 6.75C48.3181 6.75 56.3978 7.90633 62.2127 9.75651C65.1245 10.683 67.4263 11.7703 68.9842 12.9423C70.5549 14.1239 71.2501 15.2951 71.2501 16.3854Z" stroke="url(#paint6_linear)" stroke-width="1.5"/>
<g opacity="0.8" filter="url(#filter2_f)">
<path d="M71.2501 16.3854C71.2501 17.4757 70.5549 18.647 68.9842 19.8285C67.4263 21.0005 65.1245 22.0879 62.2127 23.0143C56.3978 24.8645 48.3181 26.0208 39.3602 26.0208C30.4023 26.0208 22.3226 24.8645 16.5077 23.0143C13.596 22.0879 11.2941 21.0005 9.73621 19.8285C8.16554 18.647 7.47034 17.4757 7.47034 16.3854C7.47034 15.2951 8.16554 14.1239 9.73621 12.9423C11.2941 11.7703 13.596 10.683 16.5077 9.75651C22.3226 7.90633 30.4023 6.75 39.3602 6.75C48.3181 6.75 56.3978 7.90633 62.2127 9.75651C65.1245 10.683 67.4263 11.7703 68.9842 12.9423C70.5549 14.1239 71.2501 15.2951 71.2501 16.3854Z" stroke="url(#paint7_linear)" stroke-width="1.5"/>
</g>
<defs>
<filter id="filter0_f" x="0.720154" y="28.6836" width="77.2798" height="32.7708" filterUnits="userSpaceOnUse" color-interpolation-filters="sRGB">
<feFlood flood-opacity="0" result="BackgroundImageFix"/>
<feBlend mode="normal" in="SourceGraphic" in2="BackgroundImageFix" result="shape"/>
<feGaussianBlur stdDeviation="3" result="effect1_foregroundBlur"/>
</filter>
<filter id="filter1_f" x="0.720154" y="14.3418" width="77.2798" height="32.7708" filterUnits="userSpaceOnUse" color-interpolation-filters="sRGB">
<feFlood flood-opacity="0" result="BackgroundImageFix"/>
<feBlend mode="normal" in="SourceGraphic" in2="BackgroundImageFix" result="shape"/>
<feGaussianBlur stdDeviation="3" result="effect1_foregroundBlur"/>
</filter>
<filter id="filter2_f" x="0.720337" y="0" width="77.2798" height="32.7708" filterUnits="userSpaceOnUse" color-interpolation-filters="sRGB">
<feFlood flood-opacity="0" result="BackgroundImageFix"/>
<feBlend mode="normal" in="SourceGraphic" in2="BackgroundImageFix" result="shape"/>
<feGaussianBlur stdDeviation="3" result="effect1_foregroundBlur"/>
</filter>
<linearGradient id="paint0_linear" x1="49.9608" y1="22.6391" x2="29.7325" y2="41.9878" gradientUnits="userSpaceOnUse">
<stop stop-color="#FF8989"/>
<stop offset="1" stop-color="#FFB170"/>
</linearGradient>
<linearGradient id="paint1_linear" x1="49.9608" y1="27.6347" x2="29.7325" y2="46.9834" gradientUnits="userSpaceOnUse">
<stop stop-color="#FF8989"/>
<stop offset="1" stop-color="#FFB170"/>
</linearGradient>
<linearGradient id="paint2_linear" x1="49.9927" y1="46.7999" x2="50.1291" y2="36.485" gradientUnits="userSpaceOnUse">
<stop stop-color="#FF8989"/>
<stop offset="1" stop-color="#FF9172" stop-opacity="0"/>
</linearGradient>
<linearGradient id="paint3_linear" x1="49.9927" y1="46.7999" x2="50.1291" y2="36.485" gradientUnits="userSpaceOnUse">
<stop stop-color="#FF8989"/>
<stop offset="1" stop-color="#FF9172" stop-opacity="0"/>
</linearGradient>
<linearGradient id="paint4_linear" x1="34.9091" y1="35.4254" x2="35.361" y2="23.5425" gradientUnits="userSpaceOnUse">
<stop stop-color="#FF8989"/>
<stop offset="1" stop-color="#FF9172" stop-opacity="0"/>
</linearGradient>
<linearGradient id="paint5_linear" x1="34.9091" y1="35.4254" x2="35.361" y2="23.5425" gradientUnits="userSpaceOnUse">
<stop stop-color="#FF8989"/>
<stop offset="1" stop-color="#FF9172" stop-opacity="0"/>
</linearGradient>
<linearGradient id="paint6_linear" x1="50.4875" y1="25.7818" x2="40.8387" y2="-2.44672" gradientUnits="userSpaceOnUse">
<stop stop-color="#FFB691"/>
<stop offset="0.8375" stop-color="#FF9172" stop-opacity="0"/>
</linearGradient>
<linearGradient id="paint7_linear" x1="50.4875" y1="25.7818" x2="40.8387" y2="-2.44672" gradientUnits="userSpaceOnUse">
<stop stop-color="#FFB691"/>
<stop offset="0.8375" stop-color="#FF9172" stop-opacity="0"/>
</linearGradient>
<clipPath id="clip0">
<rect x="22.7753" y="13.4182" width="30.6962" height="34.7352" fill="white"/>
</clipPath>
<clipPath id="clip1">
<rect x="25.0907" y="17" width="28" height="31.6842" fill="white"/>
</clipPath>
</defs>
</svg>

<svg width="78" height="62" fill="none" xmlns="http://www.w3.org/2000/svg"><g clip-path="url(#clip0)" clip-rule="evenodd"><path fill-rule="evenodd" d="M43.096 33.537c.002 0 .004-.002.005-.003h.001l.002-.002a.208.208 0 00-.008.005z" fill="#2B2C2A"/><path d="M43.096 33.537c.002 0 .004-.002.005-.003h.001l.002-.002a.208.208 0 00-.008.005z" stroke="#F8F2E6" stroke-width=".8" stroke-linecap="round" stroke-linejoin="round"/><path fill-rule="evenodd" d="M43.105 33.531l.01-.005-.01.005z" fill="#2B2C2A"/><path d="M43.105 33.531s0 0 0 0l.01-.005s0 0 0 0l-.01.005z" stroke="#F8F2E6" stroke-width=".8" stroke-linecap="round" stroke-linejoin="round"/><g clip-path="url(#clip1)"><path fill-rule="evenodd" d="M43.626 35.352l.005-.003h.001l.002-.001a.249.249 0 00-.008.004z" fill="#2B2C2A"/><path d="M43.626 35.352l.005-.003h.001l.002-.001a.249.249 0 00-.008.004z" stroke="#F8F2E6" stroke-width=".8" stroke-linecap="round" stroke-linejoin="round"/><path fill-rule="evenodd" d="M43.635 35.347a.433.433 0 010 0z" fill="#2B2C2A"/><path d="M43.635 35.347s0 0 0 0a.462.462 0 01.009-.005s0 0 0 0a.433.433 0 01-.01.005z" stroke="#F8F2E6" stroke-width=".8" stroke-linecap="round" stroke-linejoin="round"/><path d="M48.068 32.842c-3.519 1.989-4.284 2.42-4.423 2.5 0 0 0 0 0 0l-.01.005a.825.825 0 01-.003.002s0 0 0 0l-.011.006s0 0 0 0h-.002c-.002.002-.001.002 0 0h.001s0 0 0 0l-4.393 2.483c-5.442-3.077-3.625-2.05-8.84-4.996l8.84-4.995 8.84 4.995zM25.966 25.35c0 11.965.002 3.982 0 14.986 10.227 5.777 3.076 1.74 13.261 7.493l13.261-7.493c.001-11.965-.002-3.982 0-14.986-10.31-5.823-3.142-1.777-13.26-7.493L25.965 25.35z" stroke="#F8F2E6" stroke-width=".8" stroke-linecap="round" stroke-linejoin="round"/><path d="M39.227 47.828l13.261-7.493V35.34l-13.26 7.492-8.842-4.994v-4.996l8.842-4.995c5.433 3.072 3.397 1.92 8.84 4.995v-4.995l-8.842-4.995-13.26 7.493v9.99c10.227 5.777 3.076 1.74 13.261 7.493z" stroke="#FF8A8A" stroke-linejoin="round"/><path fill-rule="evenodd" d="M39.226 22.852l8.842 4.995v4.995l-8.841 4.996c-5.432-3.071-3.428-1.939-8.84-4.996l-.001 4.996 8.842 4.994 13.26-7.492v-9.99c-10.31-5.824-3.142-1.777-13.261-7.494l-13.26 7.493-.001 4.996 13.26-7.493z" fill="url(#paint0_linear)" fill-opacity=".2"/><path fill-rule="evenodd" d="M39.227 47.828l13.261-7.493V35.34l-13.26 7.492-8.842-4.994v-4.996l8.842-4.995c5.433 3.072 3.397 1.92 8.84 4.995v-4.995l-8.842-4.995-13.26 7.493v9.99c10.227 5.777 3.076 1.74 13.261 7.493z" fill="url(#paint1_linear)" fill-opacity=".05"/><path d="M39.226 22.852l8.842 4.995v4.995l-8.841 4.996c-5.432-3.071-3.428-1.939-8.84-4.996l-.001 4.996 8.842 4.994 13.26-7.492v-9.99c-10.31-5.824-3.142-1.777-13.261-7.494l-13.26 7.493-.001 4.996 13.26-7.493z" stroke="#FF8A8A" stroke-linejoin="round"/></g></g><path opacity=".6" d="M71.25 45.069c0 1.09-.695 2.262-2.266 3.443-1.558 1.172-3.86 2.26-6.771 3.186-5.815 1.85-13.895 3.006-22.853 3.006-8.958 0-17.038-1.156-22.852-3.006-2.912-.926-5.214-2.014-6.772-3.186-1.57-1.181-2.266-2.353-2.266-3.443 0-1.09.695-2.262 2.266-3.443 1.558-1.172 3.86-2.26 6.772-3.186 5.814-1.85 13.894-3.006 22.852-3.006s17.038 1.156 22.852 3.006c2.912.927 5.214 2.014 6.772 3.186 1.57 1.181 2.266 2.353 2.266 3.443z" stroke="url(#paint2_linear)" stroke-width="1.5"/><g opacity=".6" filter="url(#filter0_f)"><path d="M71.25 45.069c0 1.09-.695 2.262-2.266 3.443-1.558 1.172-3.86 2.26-6.771 3.186-5.815 1.85-13.895 3.006-22.853 3.006-8.958 0-17.038-1.156-22.852-3.006-2.912-.926-5.214-2.014-6.772-3.186-1.57-1.181-2.266-2.353-2.266-3.443 0-1.09.695-2.262 2.266-3.443 1.558-1.172 3.86-2.26 6.772-3.186 5.814-1.85 13.894-3.006 22.852-3.006s17.038 1.156 22.852 3.006c2.912.927 5.214 2.014 6.772 3.186 1.57 1.181 2.266 2.353 2.266 3.443z" stroke="url(#paint3_linear)" stroke-width="1.5"/></g><path opacity=".7" d="M71.25 30.727c0 1.09-.695 2.262-2.266 3.443-1.558 1.172-3.86 2.26-6.771 3.186-5.815 1.85-13.895 3.007-22.853 3.007-8.958 0-17.038-1.157-22.852-3.007-2.912-.926-5.214-2.014-6.772-3.186-1.57-1.181-2.266-2.353-2.266-3.443 0-1.09.695-2.261 2.266-3.443 1.558-1.172 3.86-2.26 6.772-3.186 5.814-1.85 13.894-3.006 22.852-3.006s17.038 1.156 22.852 3.006c2.912.927 5.214 2.014 6.772 3.186 1.57 1.182 2.266 2.353 2.266 3.443z" stroke="url(#paint4_linear)" stroke-width="1.5"/><g opacity=".7" filter="url(#filter1_f)"><path d="M71.25 30.727c0 1.09-.695 2.262-2.266 3.443-1.558 1.172-3.86 2.26-6.771 3.186-5.815 1.85-13.895 3.007-22.853 3.007-8.958 0-17.038-1.157-22.852-3.007-2.912-.926-5.214-2.014-6.772-3.186-1.57-1.181-2.266-2.353-2.266-3.443 0-1.09.695-2.261 2.266-3.443 1.558-1.172 3.86-2.26 6.772-3.186 5.814-1.85 13.894-3.006 22.852-3.006s17.038 1.156 22.852 3.006c2.912.927 5.214 2.014 6.772 3.186 1.57 1.182 2.266 2.353 2.266 3.443z" stroke="url(#paint5_linear)" stroke-width="1.5"/></g><path opacity=".8" d="M71.25 16.385c0 1.09-.695 2.262-2.266 3.443-1.558 1.172-3.86 2.26-6.771 3.186-5.815 1.85-13.895 3.007-22.853 3.007-8.958 0-17.037-1.157-22.852-3.007-2.912-.926-5.214-2.014-6.772-3.186-1.57-1.181-2.266-2.352-2.266-3.443 0-1.09.696-2.261 2.266-3.443 1.558-1.172 3.86-2.259 6.772-3.185C22.323 7.907 30.402 6.75 39.36 6.75s17.038 1.156 22.853 3.007c2.911.926 5.213 2.013 6.771 3.185 1.57 1.182 2.266 2.353 2.266 3.443z" stroke="url(#paint6_linear)" stroke-width="1.5"/><g opacity=".8" filter="url(#filter2_f)"><path d="M71.25 16.385c0 1.09-.695 2.262-2.266 3.443-1.558 1.172-3.86 2.26-6.771 3.186-5.815 1.85-13.895 3.007-22.853 3.007-8.958 0-17.037-1.157-22.852-3.007-2.912-.926-5.214-2.014-6.772-3.186-1.57-1.181-2.266-2.352-2.266-3.443 0-1.09.696-2.261 2.266-3.443 1.558-1.172 3.86-2.259 6.772-3.185C22.323 7.907 30.402 6.75 39.36 6.75s17.038 1.156 22.853 3.007c2.911.926 5.213 2.013 6.771 3.185 1.57 1.182 2.266 2.353 2.266 3.443z" stroke="url(#paint7_linear)" stroke-width="1.5"/></g><defs><linearGradient id="paint3_linear" x1="49.993" y1="46.8" x2="50.129" y2="36.485" gradientUnits="userSpaceOnUse"><stop stop-color="#FF8989"/><stop offset="1" stop-color="#FF9172" stop-opacity="0"/></linearGradient><linearGradient id="paint0_linear" x1="49.961" y1="22.639" x2="29.733" y2="41.988" gradientUnits="userSpaceOnUse"><stop stop-color="#FF8989"/><stop offset="1" stop-color="#FFB170"/></linearGradient><linearGradient id="paint1_linear" x1="49.961" y1="27.635" x2="29.733" y2="46.983" gradientUnits="userSpaceOnUse"><stop stop-color="#FF8989"/><stop offset="1" stop-color="#FFB170"/></linearGradient><linearGradient id="paint2_linear" x1="49.993" y1="46.8" x2="50.129" y2="36.485" gradientUnits="userSpaceOnUse"><stop stop-color="#FF8989"/><stop offset="1" stop-color="#FF9172" stop-opacity="0"/></linearGradient><linearGradient id="paint4_linear" x1="34.909" y1="35.425" x2="35.361" y2="23.543" gradientUnits="userSpaceOnUse"><stop stop-color="#FF8989"/><stop offset="1" stop-color="#FF9172" stop-opacity="0"/></linearGradient><linearGradient id="paint5_linear" x1="34.909" y1="35.425" x2="35.361" y2="23.543" gradientUnits="userSpaceOnUse"><stop stop-color="#FF8989"/><stop offset="1" stop-color="#FF9172" stop-opacity="0"/></linearGradient><linearGradient id="paint6_linear" x1="50.487" y1="25.782" x2="40.839" y2="-2.447" gradientUnits="userSpaceOnUse"><stop stop-color="#FFB691"/><stop offset=".838" stop-color="#FF9172" stop-opacity="0"/></linearGradient><linearGradient id="paint7_linear" x1="50.487" y1="25.782" x2="40.839" y2="-2.447" gradientUnits="userSpaceOnUse"><stop stop-color="#FFB691"/><stop offset=".838" stop-color="#FF9172" stop-opacity="0"/></linearGradient><filter id="filter0_f" x=".72" y="28.684" width="77.28" height="32.771" filterUnits="userSpaceOnUse" color-interpolation-filters="sRGB"><feFlood flood-opacity="0" result="BackgroundImageFix"/><feBlend in="SourceGraphic" in2="BackgroundImageFix" result="shape"/><feGaussianBlur stdDeviation="3" result="effect1_foregroundBlur"/></filter><filter id="filter1_f" x=".72" y="14.342" width="77.28" height="32.771" filterUnits="userSpaceOnUse" color-interpolation-filters="sRGB"><feFlood flood-opacity="0" result="BackgroundImageFix"/><feBlend in="SourceGraphic" in2="BackgroundImageFix" result="shape"/><feGaussianBlur stdDeviation="3" result="effect1_foregroundBlur"/></filter><filter id="filter2_f" x=".72" y="0" width="77.28" height="32.771" filterUnits="userSpaceOnUse" color-interpolation-filters="sRGB"><feFlood flood-opacity="0" result="BackgroundImageFix"/><feBlend in="SourceGraphic" in2="BackgroundImageFix" result="shape"/><feGaussianBlur stdDeviation="3" result="effect1_foregroundBlur"/></filter><clipPath id="clip0"><path fill="#fff" d="M22.775 13.418h30.696v34.735H22.775z"/></clipPath><clipPath id="clip1"><path fill="#fff" d="M25.091 17h28v31.684h-28z"/></clipPath></defs></svg>
